X: 1
T: FAVORITE -- HORNPIPE
B: Cole's 1000 Fiddle Tunes
R: hornpipe
M: 2/4
L: 1/16
Z: Contributed 20000423151814 by John Chambers jc:trillian.mit.edu
K: G
(uBc) \
| dBcA Ggfe | (ved).d.d .d2vcuB | Ac"4"ed cBAG | F"4"AGE .D2(uBc) |
| dBcA Ggfe | (ved).d.d (udg).f.e | dBcA BG"4"AF | G2B2G2 :|
|: vcB \
| A"0"DFA GBdg | ("4"ed).d.d (dg)v.d.B | A"0"DFA GBdg | ("4"ed).d.d (dgba) |
| gbfa "0"egdf | c"4"eBd "0"AcGB | "0".A2(cB) A"0"DFA | G2B2G2 :|
